X:40
T:Morgiana in Spain
R:Jig
O:England
M:6/8
A:Lancashire
B:Winder
K:D
F2G A2d | F2G A2d | B2B e2d | ced cBA |\
F2G A2d | F2G A2d | Bed cBc | d3 d2 :|*
|:e2d c2f | e2d c2f | e2d c2B | A2G F2f |\
e2d c2f | e2d c2f | efd cdB | ABG FGE |\
F2G A2d | F2G A2d | B2B e2d | ced cBA |\
F2G A2d | F2G A2d | Bed cBc | d3 d2 :|**
